X:521
T:Trip To Bantry
R: Jig
M:6/8
L:1/8
K:Ador
|:"Am"EAA "G"Bcd|"Am"eaf "G"ged|edB "Am"cBA|"G"B2A "Am"GED|
EAA "G"Bcd|"Am"eaf "G"g2e|dge dBG|1"Am"EAA A2G:|2"Am"EAA ABd|:
e2a age|"G"dBd g2a|"Am"age "G"edB|BAB GED|[1
"Am"e2a age|"G"dBd g2a|"Am"age "G"dBG|"Am"EAA ABd:|[2
EAA "G"Bcd|"Am"eaf "G"g2e|dge dBG|"Am"EAA A2||

%%vskip 1cm
%%center "Hawthorne Hedge hogged over to bottom of page 217



%%newpage

